X:113
T:Mary's Dream (A Dirge)
S:American Veteran Fifer #113
M:C |
L:1/16
Q:1/4=110
K:C 
%%MIDI program 72
%%MIDI transpose 8
%%MIDI ratio 3 1
B4 E3G B6 A2 | G3E F3G E6 F2 | G3F G3A B3A Bd3 | e4 A3B A4 B3A |
Gg3 -g3e dB3 -B3G | A4 B4 g6 f2 | e6 d2 B3A Bd3 | e4 E3F E8 :|
|:d7 e d3c d3d | g8 d4 B2d2 | e3d e3f g3f g3a | b4 e8 B3A |
Gg3 -g3e dB3 -B3G | A4 B4 g6 f2 | e6 d2 B3A Bd3 |  e4 E3F E8 :|


